symbols/web/backspace/materialsymbolssharp/backspace_wght500fill1_24px.svg

<svg xmlns="http://www.w3.org/2000/svg" height="24" width="24"><path d="M11.425 16.075 14 13.5l2.6 2.575 1.5-1.5L15.5 12l2.6-2.575-1.5-1.5L14 10.5l-2.575-2.575-1.5 1.5L12.5 12l-2.575 2.575ZM7.875 19.2l-5.1-7.2 5.1-7.2h13.35v14.4Z"/></svg>

<svg xmlns="http://www.w3.org/2000/svg" height="24" width="24"><path d="M11.425 16.075 14 13.5 16.6 16.075 18.1 14.575 15.5 12 18.1 9.425 16.6 7.925 14 10.5 11.425 7.925 9.925 9.425 12.5 12 9.925 14.575ZM7.875 19.2 2.775 12 7.875 4.8H21.225V19.2Z"/></svg>
